images/group.svg

<svg xmlns="http://www.w3.org/2000/svg" width="446" height="528" viewBox="0 0 446 528"><title>Group</title><g fill="#FFAE00"><path d="M54.5 0v59.2l201.8.4c101.2 1.5 104 133.8 1.7 133h-42.6v-101h-59.2v101H54v59.2h102.2v101h59.2v-101h27.1s14.2-.1 14.9-.1C438.3 251.8 436.6 0 256.8.3 197.8.4 130.3.3 54.5 0zM24.3 466.5h13.9c9 0 15.1-5.3 15.1-13.5 0-8.6-6.1-13.7-15.1-13.7H24.3v27.2zm16.3 20.4H24.2v38.2H.5V418.8h40.1c21.6 0 36.4 14.2 36.4 34 0 20.1-14.8 34.1-36.4 34.1zm150.7 38.2h-69.6V418.8h23.7v83.7h45.9v22.6zm85.1 2.4c-23.4 0-42.2-14.1-42.2-40.8v-67.9h23.7v66c0 12.9 7.2 19.3 18.5 19.3 11.2 0 18.4-6.4 18.4-19.3v-66h23.7v67.9c0 26.7-18.7 40.8-42.1 40.8zm167.5-82.6l-21.3 6c-.7-5-4.8-13.4-17.7-13.4-8.8 0-14.5 5.6-14.5 11.4 0 5.1 3.1 8.9 10.5 10.2l14.2 2.7c20.3 3.8 30.8 16.8 30.8 32 0 16.6-14 33.6-39.3 33.6-29.4 0-42-19.1-43.5-34.1l21.7-5.2c.9 9.7 7.5 18.3 22.1 18.3 9.3 0 15-4.5 15-11.1 0-5.4-4.4-9.3-11.4-10.7l-14.6-2.7c-18-3.4-28.9-15.4-28.9-31.2 0-20.1 17.7-34.2 38.1-34.2 26.5 0 36.6 15.9 38.8 28.4z"/></g></svg>

<svg xmlns="http://www.w3.org/2000/svg" width="446" height="528" viewBox="0 0 446 528"><title>  Group</title><desc>  Created with Sketch.</desc><g fill="none"><g fill="#FFAE00"><path d="M54.5 0L54.5 59.2 256.3 59.6C357.5 61.1 360.3 193.4 258 192.6 256.9 192.6 242.7 192.6 242.7 192.6L215.4 192.6 215.4 91.6 156.2 91.6 156.2 192.6 54 192.6 54 251.8 156.2 251.8 156.2 352.8 215.4 352.8 215.4 251.8 242.5 251.8C242.5 251.8 256.7 251.7 257.4 251.7 438.3 251.8 436.6 0 256.8 0.3 197.8 0.4 130.3 0.3 54.5 0Z"/><path d="M24.3 466.5L38.2 466.5C47.2 466.5 53.3 461.2 53.3 453 53.3 444.4 47.2 439.3 38.2 439.3L24.3 439.3 24.3 466.5ZM40.6 486.9L24.2 486.9 24.2 525.1 0.5 525.1 0.5 418.8 40.6 418.8C62.2 418.8 77 433 77 452.8 77 472.9 62.2 486.9 40.6 486.9ZM191.3 525.1L121.7 525.1 121.7 418.8 145.4 418.8 145.4 502.5 191.3 502.5 191.3 525.1ZM276.4 527.5C253 527.5 234.2 513.4 234.2 486.7L234.2 418.8 257.9 418.8 257.9 484.8C257.9 497.7 265.1 504.1 276.4 504.1 287.6 504.1 294.8 497.7 294.8 484.8L294.8 418.8 318.5 418.8 318.5 486.7C318.5 513.4 299.8 527.5 276.4 527.5ZM443.9 444.9L422.6 450.9C421.9 445.9 417.8 437.5 404.9 437.5 396.1 437.5 390.4 443.1 390.4 448.9 390.4 454 393.5 457.8 400.9 459.1L415.1 461.8C435.4 465.6 445.9 478.6 445.9 493.8 445.9 510.4 431.9 527.4 406.6 527.4 377.2 527.4 364.6 508.3 363.1 493.3L384.8 488.1C385.7 497.8 392.3 506.4 406.9 506.4 416.2 506.4 421.9 501.9 421.9 495.3 421.9 489.9 417.5 486 410.5 484.6L395.9 481.9C377.9 478.5 367 466.5 367 450.7 367 430.6 384.7 416.5 405.1 416.5 431.6 416.5 441.7 432.4 443.9 444.9Z"/></g></g></svg>
